build/img/hamburger-full.svg

<svg width="48" height="52" viewBox="0 0 48 52" fill="none" xmlns="http://www.w3.org/2000/svg">
<g filter="url(#filter0_d_1450_86906)">
<mask id="path-1-inside-1_1450_86906" fill="white">
<path d="M0 8C0 3.58172 3.58172 0 8 0H40C44.4183 0 48 3.58172 48 8V40C48 44.4183 44.4183 48 40 48H8C3.58172 48 0 44.4183 0 40V8Z"/>
</mask>
<path d="M0 8C0 3.58172 3.58172 0 8 0H40C44.4183 0 48 3.58172 48 8V40C48 44.4183 44.4183 48 40 48H8C3.58172 48 0 44.4183 0 40V8Z" fill="#2B69FF"/>
<path d="M8 2H40V-2H8V2ZM46 8V40H50V8H46ZM40 46H8V50H40V46ZM2 40V8H-2V40H2ZM8 46C4.68629 46 2 43.3137 2 40H-2C-2 45.5228 2.47715 50 8 50V46ZM46 40C46 43.3137 43.3137 46 40 46V50C45.5228 50 50 45.5228 50 40H46ZM40 2C43.3137 2 46 4.68629 46 8H50C50 2.47715 45.5228 -2 40 -2V2ZM8 -2C2.47715 -2 -2 2.47715 -2 8H2C2 4.68629 4.68629 2 8 2V-2Z" fill="url(#paint0_linear_1450_86906)" mask="url(#path-1-inside-1_1450_86906)"/>
</g>
<rect x="14" y="17.75" width="15.8333" height="2.5" rx="1.25" fill="white"/>
<rect x="14" y="22.75" width="20" height="2.5" rx="1.25" fill="white"/>
<rect x="14" y="27.75" width="12.5" height="2.5" rx="1.25" fill="white"/>
<path d="M6 14C6 8 8 6 14.5 6" stroke="#4E82FF" stroke-width="3" stroke-linecap="round"/>
<defs>
<!-- <filter id="filter0_d_1450_86906" x="0" y="0" width="48" height="52" filterUnits="userSpaceOnUse" color-interpolation-filters="sRGB">
<feFlood flood-opacity="0" result="BackgroundImageFix"/>
<feColorMatrix in="SourceAlpha" type="matrix" values="0 0 0 0 0 0 0 0 0 0 0 0 0 0 0 0 0 0 127 0" result="hardAlpha"/>
<feOffset dy="4"/>
<feComposite in2="hardAlpha" operator="out"/>
<feColorMatrix type="matrix" values="0 0 0 0 0.130786 0 0 0 0 0.325525 0 0 0 0 0.796667 0 0 0 1 0"/>
<feBlend mode="normal" in2="BackgroundImageFix" result="effect1_dropShadow_1450_86906"/>
<feBlend mode="normal" in="SourceGraphic" in2="effect1_dropShadow_1450_86906" result="shape"/>
</filter> -->
<linearGradient id="paint0_linear_1450_86906" x1="28.2" y1="121.44" x2="28.2" y2="-50.88" gradientUnits="userSpaceOnUse">
<stop offset="0.0388586" stop-color="#53557A"/>
<stop offset="0.451042" stop-color="#8891DD" stop-opacity="0"/>
<stop offset="0.771784" stop-color="#B5B8F7"/>
</linearGradient>
</defs>
</svg>

<svg width="48" height="52" fill="none" xmlns="http://www.w3.org/2000/svg"><g filter="url(#filter0_d_1450_86906)"><mask id="a" fill="#fff"><path d="M0 8a8 8 0 018-8h32a8 8 0 018 8v32a8 8 0 01-8 8H8a8 8 0 01-8-8V8z"/></mask><path d="M0 8a8 8 0 018-8h32a8 8 0 018 8v32a8 8 0 01-8 8H8a8 8 0 01-8-8V8z" fill="#2B69FF"/><path d="M8 2h32v-4H8v4zm38 6v32h4V8h-4zm-6 38H8v4h32v-4zM2 40V8h-4v32h4zm6 6a6 6 0 01-6-6h-4c0 5.523 4.477 10 10 10v-4zm38-6a6 6 0 01-6 6v4c5.523 0 10-4.477 10-10h-4zM40 2a6 6 0 016 6h4c0-5.523-4.477-10-10-10v4zM8-2C2.477-2-2 2.477-2 8h4a6 6 0 016-6v-4z" fill="url(#paint0_linear_1450_86906)" mask="url(#a)"/></g><rect x="14" y="17.75" width="15.833" height="2.5" rx="1.25" fill="#fff"/><rect x="14" y="22.75" width="20" height="2.5" rx="1.25" fill="#fff"/><rect x="14" y="27.75" width="12.5" height="2.5" rx="1.25" fill="#fff"/><path d="M6 14c0-6 2-8 8.5-8" stroke="#4E82FF" stroke-width="3" stroke-linecap="round"/><defs><linearGradient id="paint0_linear_1450_86906" x1="28.2" y1="121.44" x2="28.2" y2="-50.88" gradientUnits="userSpaceOnUse"><stop offset=".039" stop-color="#53557A"/><stop offset=".451" stop-color="#8891DD" stop-opacity="0"/><stop offset=".772" stop-color="#B5B8F7"/></linearGradient></defs></svg>
